svgs/thin/van-shuttle.svg

<svg xmlns="http://www.w3.org/2000/svg" viewBox="0 0 640 512"><!--! Font Awesome Pro 6.5.1 by @fontawesome - https://fontawesome.com License - https://fontawesome.com/license (Commercial License) Copyright 2023 Fonticons, Inc. --><path d="M16 80V192H160V48H48C30.3 48 16 62.3 16 80zm0 128V336c0 17.7 14.3 32 32 32H65.3c7.6-45.4 47.1-80 94.7-80s87.1 34.6 94.7 80H385.3c7.6-45.4 47.1-80 94.7-80s87.1 34.6 94.7 80H592c17.7 0 32-14.3 32-32V212.8c0-1.6-.2-3.2-.5-4.8H376 168 16zm160-16H368V48H176V192zm208 0H613.4L483.7 55.5c-4.5-4.8-10.8-7.5-17.4-7.5H384V192zM592 384H576c0 53-43 96-96 96s-96-43-96-96H256c0 53-43 96-96 96s-96-43-96-96H48c-26.5 0-48-21.5-48-48V80C0 53.5 21.5 32 48 32H168 376h90.3c11 0 21.4 4.5 29 12.4L629 185.2c7.1 7.4 11 17.3 11 27.6V336c0 26.5-21.5 48-48 48zm-32 0a80 80 0 1 0 -160 0 80 80 0 1 0 160 0zM160 464a80 80 0 1 0 0-160 80 80 0 1 0 0 160z"/></svg>

<svg xmlns="http://www.w3.org/2000/svg" viewBox="0 0 640 512"><!--! Font Awesome Pro 6.1.1 by @fontawesome - https://fontawesome.com License - https://fontawesome.com/license (Commercial License) Copyright 2022 Fonticons, Inc. --><path d="M592 384H576C576 437 533 480 480 480C426.1 480 384 437 384 384H256C256 437 213 480 160 480C106.1 480 64 437 64 384H48C21.49 384 0 362.5 0 336V80C0 53.49 21.49 32 48 32H466.3C477.2 32 487.7 36.5 495.3 44.45L628.1 185.2C636.1 192.7 640 202.5 640 212.8V336C640 362.5 618.5 384 592 384zM16 192H160V48H48C30.33 48 16 62.33 16 80V192zM16 208V336C16 353.7 30.33 368 48 368H65.33C72.94 322.6 112.4 288 160 288C207.6 288 247.1 322.6 254.7 368H385.3C392.9 322.6 432.4 288 480 288C527.6 288 567.1 322.6 574.7 368H592C609.7 368 624 353.7 624 336V212.8C624 211.2 623.8 209.6 623.5 208H16zM176 192H368V48H176V192zM384 192H613.4L483.7 55.47C479.1 50.7 472.8 48 466.3 48H384V192zM480 304C435.8 304 400 339.8 400 384C400 428.2 435.8 464 480 464C524.2 464 560 428.2 560 384C560 339.8 524.2 304 480 304zM160 464C204.2 464 240 428.2 240 384C240 339.8 204.2 304 160 304C115.8 304 80 339.8 80 384C80 428.2 115.8 464 160 464z"/></svg>
